Obsidian-Light/actions/scalable/edit-paste-symbolic.svg

<svg height="16" width="16" xmlns="http://www.w3.org/2000/svg"><path d="m5 0v.96875h-2.46875c-.8309999 0-1.5.669-1.5 1.5v10.03125c0 .810431.6351935 1.468004 1.4375 1.5.020363.000812.041931 0 .0625 0h.46875 1v.5c0 .831.669 1.5 1.5 1.5h8c.831 0 1.5-.669 1.5-1.5v-10c0-.657875-.412983-1.2029937-1-1.40625v-.625c0-.8309999-.669-1.5-1.5-1.5h-2.5v-.96875zm1 1h3v1h-3zm.5 4h6c.277 0 .5.223.5.5v8c0 .277-.223.5-.5.5h-6c-.277 0-.5-.223-.5-.5v-8c0-.277.223-.5.5-.5z" fill="#bebebe"/></svg>

<?xml version="1.0" encoding="UTF-8" standalone="no"?>
<!-- Created with Inkscape (http://www.inkscape.org/) -->

<svg
   xmlns:dc="http://purl.org/dc/elements/1.1/"
   xmlns:cc="http://creativecommons.org/ns#"
   xmlns:rdf="http://www.w3.org/1999/02/22-rdf-syntax-ns#"
   xmlns:svg="http://www.w3.org/2000/svg"
   xmlns="http://www.w3.org/2000/svg"
   xmlns:sodipodi="http://sodipodi.sourceforge.net/DTD/sodipodi-0.dtd"
   xmlns:inkscape="http://www.inkscape.org/namespaces/inkscape"
   width="16"
   height="16"
   id="svg2"
   sodipodi:version="0.32"
   inkscape:version="0.48.1 r9760"
   version="1.0"
   sodipodi:docname="edit-paste.svg"
   inkscape:output_extension="org.inkscape.output.svg.inkscape"
   inkscape:export-filename="/home/matt/.icons/Sirocco/scalable/mimetypes/text-plain.png"
   inkscape:export-xdpi="90"
   inkscape:export-ydpi="90"
   sodipodi:modified="true"
   style="display:inline">
  <sodipodi:namedview
     id="base"
     pagecolor="#ffffff"
     bordercolor="#666666"
     borderopacity="1.0"
     inkscape:pageopacity="0.0"
     inkscape:pageshadow="2"
     inkscape:zoom="23.252798"
     inkscape:cx="-9.6586116"
     inkscape:cy="7.911206"
     inkscape:document-units="px"
     inkscape:current-layer="layer1"
     width="128px"
     height="128px"
     inkscape:showpageshadow="false"
     inkscape:window-width="1920"
     inkscape:window-height="1028"
     inkscape:window-x="0"
     inkscape:window-y="25"
     showguides="true"
     inkscape:guide-bbox="true"
     showgrid="true"
     inkscape:window-maximized="1">
    <sodipodi:guide
       id="guide2226"
       position="32.637397,117.99844"
       orientation="horizontal" />
    <sodipodi:guide
       id="guide2230"
       position="110,57.402344"
       orientation="vertical" />
    <sodipodi:guide
       id="guide2232"
       position="33.760911"
       orientation="horizontal" />
    <sodipodi:guide
       id="guide2231"
       position="46.774696"
       orientation="horizontal" />
    <inkscape:grid
       enabled="true"
       visible="true"
       id="grid3231"
       type="xygrid" />
    <sodipodi:guide
       orientation="1,0"
       position="100,67.625"
       id="guide2713" />
  </sodipodi:namedview>
  <defs
     id="defs4" />
  <metadata
     id="metadata7">
    <rdf:RDF>
      <cc:Work
         rdf:about="">
        <dc:format>image/svg+xml</dc:format>
        <dc:type
           rdf:resource="http://purl.org/dc/dcmitype/StillImage" />
      </cc:Work>
    </rdf:RDF>
  </metadata>
  <g
     style="display:inline"
     inkscape:label="Calque 1"
     id="layer1"
     inkscape:groupmode="layer">
    <path
       style="fill:#bebebe;fill-opacity:1;stroke:none;display:inline"
       d="m 5,0 0,0.96875 -2.46875,0 c -0.8309999,0 -1.5,0.669 -1.5,1.5 l 0,10.03125 c 0,0.810431 0.6351935,1.468004 1.4375,1.5 0.020363,8.12e-4 0.041931,0 0.0625,0 L 3,14 4,14 4,14.5 C 4,15.331 4.669,16 5.5,16 l 8,0 c 0.831,0 1.5,-0.669 1.5,-1.5 l 0,-10 C 15,3.842125 14.587017,3.2970063 14,3.09375 l 0,-0.625 c 0,-0.8309999 -0.669,-1.5 -1.5,-1.5 l -2.5,0 L 10,0 z M 6,1 9,1 9,2 6,2 z m 0.5,4 6,0 C 12.777,5 13,5.223 13,5.5 l 0,8 c 0,0.277 -0.223,0.5 -0.5,0.5 l -6,0 C 6.223,14 6,13.777 6,13.5 l 0,-8 C 6,5.223 6.223,5 6.5,5 z"
       id="Symbol"
       inkscape:connector-curvature="0"
       sodipodi:nodetypes="ccsssssccssssscssccccccccsssssssss" />
  </g>
</svg>
